brandFactory_export/2.Regular/Editar1_2Regular.svg

<?xml version="1.0" encoding="UTF-8"?>
<svg width="24px" height="24px" viewBox="0 0 24 24" version="1.1" xmlns="http://www.w3.org/2000/svg" xmlns:xlink="http://www.w3.org/1999/xlink">
    <title>2.Regular/Editar1_2Regular</title>
    <g id="Symbols" stroke="none" stroke-width="1" fill="none" fill-rule="evenodd">
        <g id="2.Regular/Editar1_2Regular" fill="#5CB615" fill-rule="nonzero">
            <path d="M21.1529412,4.56806723 C20.7831933,4.93109244 14.8806723,10.1512605 13.8184874,11.1193277 L10.6386555,12.1680672 L11.6773109,9.07226891 C12.3966387,8.43697479 18.6689076,2.91092437 19.0789916,2.50420168 C19.8352941,1.7512605 20.7563025,2.10420168 21.1563025,2.50420168 C21.4285714,2.77983193 21.6,3.18319328 21.5966872,3.56638655 C21.5966872,3.94621849 21.4352941,4.3092437 21.1529412,4.56806723 L21.1529412,4.56806723 Z M19.189916,18.8134454 C19.189916,19.7042017 18.9512605,20.3697479 18.4537815,20.8504202 C17.9159664,21.3714286 17.0890756,21.6336134 16,21.6336134 L5.21344538,21.6336134 C4.12436975,21.6336134 3.29747899,21.3714286 2.75966387,20.8504202 C2.26554622,20.3731092 2.02352941,19.707563 2.02352941,18.8168067 L2.02352941,6.42689076 C2.02352941,4.05042017 3.75798319,3.54957983 5.21344538,3.54957983 L14.8739496,3.54957983 C13.5361345,4.73613445 11.8789916,6.19831933 10.2823529,7.60336134 C10.0537815,7.80504202 9.88235294,8.06386555 9.78487395,8.35630252 L8.53781513,12.0638655 C8.22857143,12.9680672 8.7092437,13.9563025 9.61680672,14.2655462 C9.97983193,14.389916 10.3697479,14.389916 10.7327731,14.2689076 L14.4672269,13.0386555 C14.6890756,12.9647059 14.8941176,12.8470588 15.0621849,12.6957983 C15.0991597,12.6621849 17.2134454,10.7966387 19.1932773,9.04201681 C19.189916,9.03865546 19.189916,18.8134454 19.189916,18.8134454 Z M23.6235294,3.5697479 C23.6168067,2.63193277 23.2470588,1.73781513 22.5882353,1.06890756 C21.3747899,-0.144537815 19.1966387,-0.47394958 17.6470588,1.06890756 C17.5966387,1.11932773 17.4117647,1.28739496 17.1260504,1.54285714 C16.7495798,1.52941176 16.3764706,1.52268908 16,1.52268908 L5.21344538,1.52268908 C2.04705882,1.52605042 0,3.4487395 0,6.42689076 L0,18.8134454 C0,20.2621849 0.453781513,21.4386555 1.35462185,22.302521 C2.28571429,23.2033613 3.58319328,23.6571429 5.21680672,23.6571429 L16.0033613,23.6571429 C17.6336134,23.6571429 18.9344538,23.2033613 19.8655462,22.3058824 C20.7630252,21.4386555 21.2201681,20.2655462 21.2201681,18.8134454 L21.210084,7.24033613 C21.9294118,6.59831933 22.4537815,6.12773109 22.5747899,6.01008403 C23.2436975,5.37478992 23.6201681,4.49411765 23.6235294,3.5697479 Z" id="Editar1_2Regular"></path>
        </g>
    </g>
</svg>

<svg width="24" height="24" viewBox="0 0 24 24" xmlns="http://www.w3.org/2000/svg"><path d="M21.153 4.568c-.37.363-6.272 5.583-7.335 6.551l-3.18 1.05 1.04-3.097c.719-.635 6.99-6.161 7.401-6.568.756-.753 1.677-.4 2.077 0 .273.276.444.68.44 1.062 0 .38-.16.743-.443 1.002zM19.19 18.813c0 .891-.239 1.557-.736 2.037-.538.521-1.365.784-2.454.784H5.213c-1.089 0-1.916-.263-2.453-.784-.494-.477-.736-1.142-.736-2.033V6.427c0-2.377 1.734-2.877 3.19-2.877h9.66a1661.951 1661.951 0 01-4.592 4.053c-.228.202-.4.46-.497.753l-1.247 3.708a1.733 1.733 0 002.195 2.205l3.734-1.23c.222-.074.427-.192.595-.343.037-.034 2.151-1.9 4.131-3.654-.003-.003-.003 9.771-.003 9.771zM23.624 3.57a3.594 3.594 0 00-1.036-2.501c-1.213-1.214-3.391-1.543-4.94 0-.051.05-.236.218-.522.474-.376-.014-.75-.02-1.126-.02H5.213C2.047 1.526 0 3.449 0 6.427v12.386c0 1.45.454 2.626 1.355 3.49.93.9 2.228 1.354 3.862 1.354h10.786c1.63 0 2.931-.454 3.863-1.351.897-.867 1.354-2.04 1.354-3.493L21.21 7.24a90.345 90.345 0 001.365-1.23 3.377 3.377 0 001.049-2.44z" fill="#5CB615" fill-rule="nonzero"/></svg>
